packages/icons/src/SVG/micro-menu.svg

<!-- Generated by IcoMoon.io -->
<svg version="1.1" xmlns="http://www.w3.org/2000/svg" width="12" height="12" viewBox="0 0 12 12">
<title>micro-menu</title>
<path d="M5 11v-2h2v2h-2z"></path>
<path d="M5 7v-2h2v2h-2z"></path>
<path d="M5 1v2h2v-2h-2z"></path>
</svg>

<svg width="12" height="12" viewBox="0 0 12 12" fill="none" xmlns="http://www.w3.org/2000/svg">
<path d="M5 11V9H7V11H5Z" fill="#4C505B"/>
<path d="M5 7L5 5H7L7 7H5Z" fill="#4C505B"/>
<path d="M5 1V3H7V1L5 1Z" fill="#4C505B"/>
</svg>
